assets/button.svg

<svg width="127" height="44" viewBox="0 0 127 44" fill="none" xmlns="http://www.w3.org/2000/svg">
<rect x="1" y="1" width="125" height="42" rx="6.30476" fill="url(#paint0_linear_153_1340)" stroke="url(#paint1_linear_153_1340)" stroke-width="2"/>
<path d="M15.5775 19V8.81818H22.1003V10.3643H17.422V13.1286H21.6528V14.6747H17.422V19H15.5775ZM33.1587 13.9091C33.1587 15.0062 32.9532 15.9458 32.5422 16.728C32.1345 17.5069 31.5777 18.1035 30.8717 18.5178C30.1691 18.9321 29.372 19.1392 28.4804 19.1392C27.5888 19.1392 26.7901 18.9321 26.0841 18.5178C25.3815 18.1001 24.8246 17.5019 24.4136 16.723C24.006 15.9408 23.8021 15.0028 23.8021 13.9091C23.8021 12.812 24.006 11.8741 24.4136 11.0952C24.8246 10.313 25.3815 9.71473 26.0841 9.30043C26.7901 8.88613 27.5888 8.67898 28.4804 8.67898C29.372 8.67898 30.1691 8.88613 30.8717 9.30043C31.5777 9.71473 32.1345 10.313 32.5422 11.0952C32.9532 11.8741 33.1587 12.812 33.1587 13.9091ZM31.3043 13.9091C31.3043 13.1368 31.1833 12.4856 30.9413 11.9553C30.7027 11.4216 30.3713 11.0189 29.947 10.7472C29.5228 10.4721 29.0339 10.3345 28.4804 10.3345C27.9269 10.3345 27.438 10.4721 27.0138 10.7472C26.5895 11.0189 26.2565 11.4216 26.0145 11.9553C25.7759 12.4856 25.6565 13.1368 25.6565 13.9091C25.6565 14.6813 25.7759 15.3343 26.0145 15.8679C26.2565 16.3982 26.5895 16.8009 27.0138 17.076C27.438 17.3478 27.9269 17.4837 28.4804 17.4837C29.0339 17.4837 29.5228 17.3478 29.947 17.076C30.3713 16.8009 30.7027 16.3982 30.9413 15.8679C31.1833 15.3343 31.3043 14.6813 31.3043 13.9091ZM35.1825 19V8.81818H37.0269V17.4538H41.5113V19H35.1825ZM43.3922 19V8.81818H45.2366V17.4538H49.721V19H43.3922ZM60.3034 13.9091C60.3034 15.0062 60.0979 15.9458 59.6869 16.728C59.2792 17.5069 58.7224 18.1035 58.0164 18.5178C57.3138 18.9321 56.5167 19.1392 55.6251 19.1392C54.7335 19.1392 53.9348 18.9321 53.2288 18.5178C52.5261 18.1001 51.9693 17.5019 51.5583 16.723C51.1507 15.9408 50.9468 15.0028 50.9468 13.9091C50.9468 12.812 51.1507 11.8741 51.5583 11.0952C51.9693 10.313 52.5261 9.71473 53.2288 9.30043C53.9348 8.88613 54.7335 8.67898 55.6251 8.67898C56.5167 8.67898 57.3138 8.88613 58.0164 9.30043C58.7224 9.71473 59.2792 10.313 59.6869 11.0952C60.0979 11.8741 60.3034 12.812 60.3034 13.9091ZM58.449 13.9091C58.449 13.1368 58.328 12.4856 58.086 11.9553C57.8474 11.4216 57.516 11.0189 57.0917 10.7472C56.6675 10.4721 56.1786 10.3345 55.6251 10.3345C55.0716 10.3345 54.5827 10.4721 54.1585 10.7472C53.7342 11.0189 53.4011 11.4216 53.1592 11.9553C52.9206 12.4856 52.8012 13.1368 52.8012 13.9091C52.8012 14.6813 52.9206 15.3343 53.1592 15.8679C53.4011 16.3982 53.7342 16.8009 54.1585 17.076C54.5827 17.3478 55.0716 17.4837 55.6251 17.4837C56.1786 17.4837 56.6675 17.3478 57.0917 17.076C57.516 16.8009 57.8474 16.3982 58.086 15.8679C58.328 15.3343 58.449 14.6813 58.449 13.9091ZM64.2101 19L61.3366 8.81818H63.3202L65.1547 16.3004H65.2492L67.208 8.81818H69.0127L70.9765 16.3054H71.066L72.9005 8.81818H74.8841L72.0106 19H70.191L68.1526 11.8558H68.0731L66.0297 19H64.2101ZM86.6141 8.81818H88.4585V15.4702C88.4585 16.1993 88.2862 16.8407 87.9415 17.3942C87.6001 17.9477 87.1195 18.3802 86.4997 18.6918C85.8799 19 85.1557 19.1541 84.3271 19.1541C83.4952 19.1541 82.7694 19 82.1496 18.6918C81.5298 18.3802 81.0492 17.9477 80.7078 17.3942C80.3664 16.8407 80.1957 16.1993 80.1957 15.4702V8.81818H82.0402V15.3161C82.0402 15.7403 82.133 16.1181 82.3186 16.4496C82.5075 16.781 82.7727 17.0412 83.1141 17.2301C83.4555 17.4157 83.8598 17.5085 84.3271 17.5085C84.7945 17.5085 85.1988 17.4157 85.5402 17.2301C85.8849 17.0412 86.1501 16.781 86.3357 16.4496C86.5213 16.1181 86.6141 15.7403 86.6141 15.3161V8.81818ZM96.2767 11.6172C96.2303 11.183 96.0348 10.8449 95.6901 10.603C95.3487 10.361 94.9045 10.2401 94.3577 10.2401C93.9732 10.2401 93.6434 10.2981 93.3683 10.4141C93.0932 10.5301 92.8828 10.6875 92.7369 10.8864C92.5911 11.0852 92.5165 11.3123 92.5132 11.5675C92.5132 11.7796 92.5613 11.9635 92.6574 12.1193C92.7568 12.2751 92.891 12.4077 93.0601 12.517C93.2291 12.6231 93.4164 12.7126 93.6219 12.7855C93.8274 12.8584 94.0345 12.9197 94.2433 12.9695L95.1979 13.2081C95.5823 13.2976 95.9519 13.4186 96.3065 13.571C96.6645 13.7235 96.9843 13.9157 97.266 14.1477C97.5511 14.3797 97.7765 14.6598 97.9422 14.9879C98.1079 15.3161 98.1908 15.7005 98.1908 16.1413C98.1908 16.7379 98.0383 17.2633 97.7334 17.7173C97.4285 18.1681 96.9876 18.5211 96.4109 18.7763C95.8375 19.0282 95.1432 19.1541 94.3278 19.1541C93.5357 19.1541 92.848 19.0315 92.2646 18.7862C91.6846 18.541 91.2305 18.183 90.9024 17.7124C90.5776 17.2417 90.4019 16.6683 90.3754 15.9922H92.1901C92.2166 16.3468 92.3259 16.6418 92.5182 16.8771C92.7104 17.1125 92.9607 17.2881 93.2689 17.4041C93.5804 17.5201 93.9285 17.5781 94.3129 17.5781C94.714 17.5781 95.0653 17.5185 95.3669 17.3991C95.6718 17.2765 95.9105 17.1075 96.0828 16.892C96.2552 16.6733 96.343 16.4181 96.3463 16.1264C96.343 15.8613 96.2651 15.6425 96.1126 15.4702C95.9602 15.2945 95.7464 15.1487 95.4713 15.0327C95.1995 14.9134 94.8813 14.8073 94.5168 14.7145L93.3584 14.4162C92.5198 14.2008 91.857 13.8743 91.3697 13.4368C90.8858 12.996 90.6439 12.411 90.6439 11.6818C90.6439 11.0819 90.8063 10.5566 91.1311 10.1058C91.4592 9.65507 91.905 9.3054 92.4685 9.05682C93.0319 8.80492 93.6699 8.67898 94.3825 8.67898C95.1051 8.67898 95.7381 8.80492 96.2817 9.05682C96.8285 9.3054 97.2578 9.65175 97.5693 10.0959C97.8809 10.5367 98.0416 11.0438 98.0516 11.6172H96.2767ZM106.831 19.1491C106.135 19.1491 105.537 19.0232 105.036 18.7713C104.536 18.5194 104.15 18.1797 103.878 17.7521C103.609 17.3213 103.475 16.8357 103.475 16.2955C103.475 15.8878 103.558 15.5265 103.724 15.2116C103.893 14.8968 104.125 14.6051 104.42 14.3366C104.718 14.0682 105.063 13.8014 105.454 13.5362L107.258 12.3082C107.524 12.1359 107.724 11.9536 107.86 11.7614C107.999 11.5691 108.069 11.3437 108.069 11.0852C108.069 10.8665 107.976 10.6593 107.79 10.4638C107.608 10.2682 107.356 10.1705 107.035 10.1705C106.819 10.1705 106.629 10.2218 106.463 10.3246C106.301 10.424 106.173 10.5549 106.08 10.7173C105.991 10.8797 105.946 11.0521 105.946 11.2344C105.946 11.4564 106.007 11.6818 106.13 11.9105C106.256 12.1392 106.418 12.3762 106.617 12.6214C106.819 12.8667 107.035 13.1269 107.263 13.402L112.041 19H110.092L106.125 14.456C105.83 14.1113 105.545 13.7715 105.27 13.4368C104.998 13.102 104.774 12.754 104.599 12.3928C104.426 12.0282 104.34 11.6338 104.34 11.2095C104.34 10.7289 104.451 10.2997 104.673 9.92188C104.895 9.54072 105.205 9.24077 105.603 9.02202C106.004 8.80327 106.473 8.69389 107.01 8.69389C107.547 8.69389 108.007 8.79995 108.392 9.01207C108.776 9.22419 109.073 9.50592 109.282 9.85724C109.491 10.2086 109.595 10.5914 109.595 11.0057C109.595 11.4863 109.476 11.9171 109.237 12.2983C108.998 12.6761 108.667 13.0192 108.243 13.3274L106.185 14.8338C105.846 15.0791 105.605 15.3277 105.459 15.5795C105.313 15.8281 105.24 16.0402 105.24 16.2159C105.24 16.4844 105.308 16.728 105.444 16.9467C105.58 17.1655 105.77 17.3411 106.016 17.4737C106.264 17.603 106.554 17.6676 106.886 17.6676C107.25 17.6676 107.61 17.5864 107.964 17.424C108.319 17.2583 108.642 17.023 108.934 16.718C109.225 16.4131 109.458 16.0485 109.63 15.6243C109.802 15.1967 109.888 14.7228 109.888 14.2024H111.435C111.435 14.8454 111.363 15.4055 111.221 15.8828C111.078 16.3568 110.894 16.7578 110.669 17.0859C110.444 17.4107 110.205 17.6709 109.953 17.8665C109.873 17.9228 109.797 17.9792 109.724 18.0355C109.651 18.0919 109.575 18.1482 109.496 18.2045C109.138 18.5294 108.718 18.768 108.238 18.9205C107.761 19.0729 107.292 19.1491 106.831 19.1491ZM17.9152 36V25.8182H19.7596V34.4538H24.244V36H17.9152ZM26.1248 36V25.8182H32.747V27.3643H27.9693V30.1286H32.404V31.6747H27.9693V34.4538H32.7868V36H26.1248ZM36.2163 36H34.2475L37.8321 25.8182H40.109L43.6985 36H41.7298L39.0103 27.9062H38.9308L36.2163 36ZM36.2809 32.0078H41.6502V33.4893H36.2809V32.0078ZM45.3196 36V25.8182H49.1378C49.92 25.8182 50.5762 25.9541 51.1065 26.2259C51.6402 26.4976 52.0429 26.8788 52.3146 27.3693C52.5897 27.8565 52.7273 28.425 52.7273 29.0746C52.7273 29.7275 52.5881 30.2943 52.3097 30.7749C52.0346 31.2521 51.6286 31.6217 51.0916 31.8835C50.5547 32.142 49.8951 32.2713 49.1129 32.2713H46.3935V30.7401H48.8644C49.3217 30.7401 49.6963 30.6771 49.9879 30.5511C50.2796 30.4219 50.495 30.2346 50.6342 29.9893C50.7768 29.7408 50.848 29.4358 50.848 29.0746C50.848 28.7133 50.7768 28.4051 50.6342 28.1499C50.4917 27.8913 50.2746 27.6958 49.983 27.5632C49.6913 27.4273 49.3151 27.3594 48.8544 27.3594H47.1641V36H45.3196ZM50.5796 31.3864L53.1002 36H51.0419L48.5661 31.3864H50.5796ZM63.0723 25.8182V36H61.4316L56.6341 29.0646H56.5495V36H54.7051V25.8182H56.3557L61.1483 32.7585H61.2378V25.8182H63.0723ZM69.1147 25.8182H71.3718L74.3945 33.196H74.5138L77.5366 25.8182H79.7937V36H78.0238V29.005H77.9293L75.1154 35.9702H73.793L70.979 28.9901H70.8846V36H69.1147V25.8182ZM91.1802 30.9091C91.1802 32.0062 90.9747 32.9458 90.5637 33.728C90.1561 34.5069 89.5992 35.1035 88.8933 35.5178C88.1906 35.9321 87.3935 36.1392 86.5019 36.1392C85.6104 36.1392 84.8116 35.9321 84.1056 35.5178C83.403 35.1001 82.8462 34.5019 82.4352 33.723C82.0275 32.9408 81.8237 32.0028 81.8237 30.9091C81.8237 29.812 82.0275 28.8741 82.4352 28.0952C82.8462 27.313 83.403 26.7147 84.1056 26.3004C84.8116 25.8861 85.6104 25.679 86.5019 25.679C87.3935 25.679 88.1906 25.8861 88.8933 26.3004C89.5992 26.7147 90.1561 27.313 90.5637 28.0952C90.9747 28.8741 91.1802 29.812 91.1802 30.9091ZM89.3258 30.9091C89.3258 30.1368 89.2048 29.4856 88.9629 28.9553C88.7242 28.4216 88.3928 28.0189 87.9686 27.7472C87.5443 27.4721 87.0554 27.3345 86.5019 27.3345C85.9484 27.3345 85.4596 27.4721 85.0353 27.7472C84.6111 28.0189 84.278 28.4216 84.036 28.9553C83.7974 29.4856 83.6781 30.1368 83.6781 30.9091C83.6781 31.6813 83.7974 32.3343 84.036 32.8679C84.278 33.3982 84.6111 33.8009 85.0353 34.076C85.4596 34.3478 85.9484 34.4837 86.5019 34.4837C87.0554 34.4837 87.5443 34.3478 87.9686 34.076C88.3928 33.8009 88.7242 33.3982 88.9629 32.8679C89.2048 32.3343 89.3258 31.6813 89.3258 30.9091ZM93.204 36V25.8182H97.0222C97.8044 25.8182 98.4606 25.9541 98.9909 26.2259C99.5245 26.4976 99.9272 26.8788 100.199 27.3693C100.474 27.8565 100.612 28.425 100.612 29.0746C100.612 29.7275 100.472 30.2943 100.194 30.7749C99.9189 31.2521 99.5129 31.6217 98.976 31.8835C98.4391 32.142 97.7795 32.2713 96.9973 32.2713H94.2778V30.7401H96.7487C97.2061 30.7401 97.5806 30.6771 97.8723 30.5511C98.164 30.4219 98.3794 30.2346 98.5186 29.9893C98.6611 29.7408 98.7324 29.4358 98.7324 29.0746C98.7324 28.7133 98.6611 28.4051 98.5186 28.1499C98.3761 27.8913 98.159 27.6958 97.8673 27.5632C97.5757 27.4273 97.1995 27.3594 96.7388 27.3594H95.0484V36H93.204ZM98.4639 31.3864L100.985 36H98.9263L96.4504 31.3864H98.4639ZM102.589 36V25.8182H109.212V27.3643H104.434V30.1286H108.869V31.6747H104.434V34.4538H109.251V36H102.589Z" fill="#122135"/>
<defs>
<linearGradient id="paint0_linear_153_1340" x1="130.221" y1="3.72881" x2="6.91386" y2="60.3232" gradientUnits="userSpaceOnUse">
<stop offset="0.0104167" stop-color="#FFF0DA"/>
<stop offset="0.0416667" stop-color="#94641E"/>
<stop offset="0.828125" stop-color="#FFF2DB"/>
<stop offset="0.9375" stop-color="#EAC885"/>
<stop offset="0.979167" stop-color="#FBF5D1"/>
<stop offset="0.9999" stop-color="#BD9A4B"/>
<stop offset="1" stop-color="#ECD8A3"/>
</linearGradient>
<linearGradient id="paint1_linear_153_1340" x1="63.5" y1="0" x2="63.5" y2="44" gradientUnits="userSpaceOnUse">
<stop stop-color="#FCF6D1"/>
<stop offset="0.104167" stop-color="#BD9457"/>
<stop offset="0.25" stop-color="#E3CA89"/>
<stop offset="0.697917" stop-color="#FEE8C8"/>
<stop offset="0.854167" stop-color="#4D3A1A"/>
<stop offset="1" stop-color="#FCF0D1"/>
</linearGradient>
</defs>
</svg>

<svg xmlns="http://www.w3.org/2000/svg" width="127" height="44" fill="none"><rect width="125" height="42" x="1" y="1" fill="url(#a)" stroke="url(#b)" stroke-width="2" rx="6.305"/><path fill="#122135" d="M15.578 19V8.818H22.1v1.546h-4.678v2.765h4.23v1.546h-4.23V19zm17.58-5.09q0 1.645-.616 2.818-.61 1.168-1.67 1.79-1.054.621-2.392.621t-2.396-.621q-1.055-.627-1.67-1.795-.612-1.173-.612-2.814 0-1.646.612-2.814.615-1.173 1.67-1.795 1.06-.621 2.396-.621 1.338 0 2.392.621 1.06.622 1.67 1.795.617 1.17.617 2.814m-1.854 0q0-1.159-.363-1.955-.357-.8-.994-1.208a2.64 2.64 0 0 0-1.467-.412q-.83 0-1.466.412-.636.408-1 1.208-.357.796-.357 1.954t.358 1.959q.362.795.999 1.208.636.408 1.466.408.831 0 1.467-.408.636-.413.994-1.208.363-.801.363-1.959M35.182 19V8.818h1.845v8.636h4.484V19zm8.21 0V8.818h1.845v8.636h4.484V19zm16.911-5.09q0 1.645-.616 2.818-.612 1.168-1.67 1.79-1.054.621-2.392.621t-2.396-.621q-1.055-.627-1.67-1.795-.612-1.173-.612-2.814 0-1.646.611-2.814.617-1.173 1.67-1.795 1.06-.621 2.397-.621 1.338 0 2.391.621 1.06.622 1.67 1.795.617 1.17.617 2.814m-1.854 0q0-1.159-.363-1.955-.358-.8-.994-1.208a2.64 2.64 0 0 0-1.467-.412q-.83 0-1.467.412-.636.408-.999 1.208-.357.796-.358 1.954 0 1.158.358 1.959.363.795 1 1.208.636.408 1.466.408t1.467-.408q.636-.413.994-1.208.363-.801.363-1.959M64.21 19 61.337 8.818h1.983l1.835 7.482h.094l1.959-7.482h1.805l1.963 7.487h.09L72.9 8.818h1.984L72.011 19h-1.82l-2.038-7.144h-.08L66.03 19zM86.614 8.818h1.844v6.652q0 1.094-.516 1.924a3.5 3.5 0 0 1-1.442 1.298q-.93.462-2.173.462-1.248 0-2.177-.462a3.5 3.5 0 0 1-1.442-1.298q-.513-.83-.512-1.924V8.818h1.844v6.498q0 .636.279 1.134.283.497.795.78.512.279 1.213.279t1.213-.279q.517-.284.796-.78a2.3 2.3 0 0 0 .278-1.134zm9.663 2.8a1.36 1.36 0 0 0-.587-1.015q-.511-.363-1.332-.363-.578 0-.99.174a1.47 1.47 0 0 0-.631.472q-.219.299-.224.682 0 .318.144.551.15.234.403.398.254.16.562.269.307.109.621.184l.955.238q.576.134 1.109.363.537.229.959.577.427.348.676.84t.249 1.153q0 .895-.458 1.576-.457.676-1.322 1.06-.86.377-2.083.377-1.188 0-2.063-.368-.87-.367-1.363-1.074-.486-.706-.527-1.72h1.815q.04.532.328.885.289.354.75.527.468.174 1.045.174.601 0 1.054-.179.457-.184.716-.507.258-.328.263-.766a.97.97 0 0 0-.233-.656 1.7 1.7 0 0 0-.642-.437 6 6 0 0 0-.954-.319l-1.159-.298q-1.257-.323-1.988-.98-.726-.66-.726-1.754 0-.9.487-1.576.492-.675 1.338-1.05.844-.377 1.913-.377 1.084 0 1.9.378.82.373 1.287 1.039.468.66.483 1.521zm10.554 7.531q-1.044 0-1.795-.378a2.86 2.86 0 0 1-1.158-1.019 2.7 2.7 0 0 1-.403-1.456q0-.613.249-1.084.253-.473.696-.875a10 10 0 0 1 1.034-.8l1.804-1.229q.398-.258.602-.547.209-.288.209-.676 0-.328-.279-.621-.273-.293-.755-.293-.324-.001-.572.154-.243.149-.383.392a1.06 1.06 0 0 0-.134.517q0 .333.184.677.189.342.487.71.303.369.646.781L112.041 19h-1.949l-3.967-4.544a66 66 0 0 1-.855-1.02 5.4 5.4 0 0 1-.671-1.043 2.7 2.7 0 0 1-.259-1.184q0-.72.333-1.287a2.4 2.4 0 0 1 .93-.9q.601-.328 1.407-.328.805 0 1.382.318t.89.845.313 1.149q0 .72-.358 1.292-.358.567-.994 1.03l-2.058 1.506q-.508.368-.726.745-.219.374-.219.637 0 .402.204.73.203.33.572.528.372.194.87.194.547 0 1.078-.244.532-.249.97-.706.437-.458.696-1.094.258-.64.258-1.422h1.547q0 .965-.214 1.68a4.3 4.3 0 0 1-.552 1.204 3.5 3.5 0 0 1-.716.78q-.12.085-.229.17a7 7 0 0 1-.228.168 3.4 3.4 0 0 1-1.258.716 4.6 4.6 0 0 1-1.407.23M17.915 36V25.818h1.845v8.636h4.484V36zm8.21 0V25.818h6.622v1.546h-4.778v2.765h4.435v1.546h-4.435v2.779h4.818V36zm10.091 0h-1.968l3.584-10.182h2.277L43.699 36h-1.97l-2.719-8.094h-.08zm.065-3.992h5.37v1.481h-5.37zM45.32 36V25.818h3.818q1.173 0 1.968.408.801.408 1.209 1.143.412.732.412 1.706 0 .979-.417 1.7-.412.716-1.218 1.109-.806.387-1.98.387h-2.718v-1.53h2.47q.686 0 1.124-.19.438-.194.646-.562.214-.372.214-.914 0-.543-.214-.925a1.36 1.36 0 0 0-.651-.587q-.438-.204-1.129-.204h-1.69V36zm5.26-4.614L53.1 36h-2.058l-2.476-4.614zm12.492-5.568V36h-1.64l-4.798-6.935h-.084V36h-1.845V25.818h1.65l4.793 6.94h.09v-6.94zm6.043 0h2.257l3.022 7.378h.12l3.023-7.378h2.257V36h-1.77v-6.995h-.095l-2.814 6.965h-1.322l-2.814-6.98h-.094V36h-1.77zM91.18 30.91q0 1.646-.616 2.819-.612 1.168-1.67 1.79-1.054.621-2.392.621t-2.396-.621q-1.055-.627-1.67-1.795-.613-1.173-.612-2.814 0-1.646.611-2.814.617-1.173 1.67-1.795 1.06-.621 2.397-.621 1.338 0 2.391.621 1.06.622 1.67 1.795.618 1.17.617 2.814m-1.854 0q0-1.158-.363-1.954-.358-.8-.994-1.208a2.64 2.64 0 0 0-1.467-.413q-.83 0-1.467.413-.636.408-.999 1.208-.358.796-.358 1.954t.358 1.959q.363.795 1 1.208.636.408 1.466.408t1.467-.408q.636-.413.994-1.208.363-.801.363-1.959M93.204 36V25.818h3.818q1.174 0 1.969.408.8.408 1.208 1.143.413.732.413 1.706 0 .979-.418 1.7-.413.716-1.218 1.109-.806.387-1.979.387h-2.72v-1.53h2.472q.686 0 1.123-.19.438-.194.647-.562.213-.372.213-.914 0-.543-.213-.925a1.36 1.36 0 0 0-.652-.587q-.437-.204-1.128-.204h-1.69V36zm5.26-4.614L100.985 36h-2.059l-2.476-4.614zM102.589 36V25.818h6.623v1.546h-4.778v2.765h4.435v1.546h-4.435v2.779h4.817V36z"/><defs><linearGradient id="a" x1="130.221" x2="6.914" y1="3.729" y2="60.323" gradientUnits="userSpaceOnUse"><stop offset=".01" stop-color="#FFF0DA"/><stop offset=".042" stop-color="#94641E"/><stop offset=".828" stop-color="#FFF2DB"/><stop offset=".938" stop-color="#EAC885"/><stop offset=".979" stop-color="#FBF5D1"/><stop offset="1" stop-color="#BD9A4B"/><stop offset="1" stop-color="#ECD8A3"/></linearGradient><linearGradient id="b" x1="63.5" x2="63.5" y1="0" y2="44" gradientUnits="userSpaceOnUse"><stop stop-color="#FCF6D1"/><stop offset=".104" stop-color="#BD9457"/><stop offset=".25" stop-color="#E3CA89"/><stop offset=".698" stop-color="#FEE8C8"/><stop offset=".854" stop-color="#4D3A1A"/><stop offset="1" stop-color="#FCF0D1"/></linearGradient></defs></svg>
